X:1
T:San Marcos, 87.87 D
T:Ira David Sankey, 1896
T:San Marcos, 87.87 D
T:Public Domain
C:Ira David Sankey, 1896
Z:Public Domain
%%score ( 1 2 ) ( 3 4 )
L:1/8
M:6/4
K:Ab
V:1 treble 
V:2 treble 
V:3 bass 
V:4 bass 
V:1
 [Ec]4 [DB]2 [CA]4 [Ec]2 | (B2 A2) [DF]2 [DF]2 [CE]4 | [DF]4 [DG]2 [CA]4 [Ec]2 | %3
 (c2 B2) [_DA]2 [EB]6 | [Ec]4 [DB]2 [CA]4 [Ec]2 | (B2 A2) [DF]2 [DF]2 [CE]4 | %6
 (F2 G2) [EA]2 (d2 c2) [FB]2 | [EA]4 [DG]2 [CA]6 | [EB]4 [EB]2 [EB]4 [Ec]2 | %9
 [Ed]4 [EB]2 [Ec]2 [Ae]4 | [Ed]4 [Ed]2 [Ec]4 [Ec]2 | (c2 B2) [_DA]2 [EB]6 | %12
 [Ec]4 [DB]2 [CA]4 [Ec]2 | (B2 A2) [DF]2 [DF]2 [CE]4 | (F2 G2) [EA]2 (d2 c2) [FB]2 | %15
 [EA]4 [DG]2 [CA]6 |] %16
V:2
 x12 | F4 x8 | x12 | =D4 x8 | x12 | F4 x8 | D4 E4 x4 | x12 | x12 | x12 | x12 | =D4 x8 | x12 | %13
 F4 x8 | D4 E4 x4 | x12 |] %16
V:3
 [A,,A,]4 [A,,E,]2 [A,,E,]4 [A,,A,]2 | [D,A,]4 [D,A,]2 [A,,A,]2 [A,,A,]4 | %2
 [D,A,]4 [B,,E,]2 [A,,E,]4 [A,,A,]2 | [F,A,]4 [B,,B,]2 [E,G,]6 | %4
 [A,,A,]4 [A,,E,]2 [A,,E,]4 [A,,A,]2 | [D,A,]4 [D,A,]2 [A,,A,]2 [A,,A,]4 | %6
 (A,2 B,2) [C,A,]2 ([B,,G,]2 [C,A,]2) [D,D]2 | [E,C]4 [E,B,]2 [A,,A,]6 | %8
 [E,G,]4 [E,G,]2 [E,G,]4 [E,A,]2 | [E,B,]4 [E,G,]2 A,2 [A,C]4 | [G,B,]4 [G,B,]2 A,4 [A,,A,]2 | %11
 [B,,F,]4 [B,,B,]2 [E,G,]6 | [A,,A,]4 [A,,E,]2 [A,,E,]4 [A,,A,]2 | %13
 [D,A,]4 [D,A,]2 [A,,A,]2 [A,,A,]4 | (A,2 B,2) [C,A,]2 ([B,,G,]2 [C,A,]2) [D,D]2 | %15
 [E,C]4 [E,B,]2 [A,,A,]6 |] %16
V:4
 x12 | x12 | x12 | x12 | x12 | x12 | D,4 x8 | x12 | x12 | x6 A,2 x4 | x6 A,4 x2 | x12 | x12 | x12 | %14
 D,4 x8 | x12 |] %16

